icons/1_Primary/JetBrains.svg

<svg width="1024" height="1024" viewBox="0 0 1024 1024" fill="none" xmlns="http://www.w3.org/2000/svg">
<g clip-path="url(#clip0_2_2553)">
<path d="M512 1024C794.77 1024 1024 794.77 1024 512C1024 229.23 794.77 0 512 0C229.23 0 0 229.23 0 512C0 794.77 229.23 1024 512 1024Z" fill="#56595B"/>
<path d="M258.33 367.13L276.33 350.3C278.011 353.014 280.303 355.298 283.024 356.968C285.745 358.639 288.819 359.649 292 359.92C299.213 359.92 302.82 355.11 302.82 345.49V281.78H330.47V345.5C331.056 350.536 330.495 355.639 328.83 360.428C327.164 365.216 324.436 369.566 320.851 373.151C317.266 376.736 312.917 379.464 308.128 381.129C303.339 382.795 298.236 383.356 293.2 382.77C286.509 383.654 279.704 382.659 273.546 379.897C267.388 377.135 262.12 372.715 258.33 367.13ZM337.68 382.76H418.23V358.76H364.13V343.09H412.22V321.45H364.13V305.82H417V283H336.48L337.68 382.76ZM453.09 382.76H480.74V307H510.8V283H423V307H453.06L453.09 382.76ZM260.74 505.39H312.44C335.28 505.39 349.71 494.57 349.71 477.74C349.942 472.09 348.122 466.548 344.585 462.136C341.048 457.725 336.035 454.742 330.47 453.74C335.156 452.075 339.194 448.967 342.002 444.863C344.811 440.759 346.245 435.871 346.1 430.9C346.364 424.723 344.212 418.687 340.1 414.07C332.077 408.265 322.347 405.302 312.45 405.65H260.75L260.74 505.39ZM318.45 436.86C318.45 442.86 313.64 445.28 305.23 446.48H288.39V428.48H306.39C313.6 428.48 318.39 430.88 318.39 436.9L318.45 436.86ZM322.06 474.13C322.06 480.13 317.25 483.75 308.84 483.75H287.19V465.75H308.83C317.24 465.71 322.05 468.12 322.05 474.13H322.06ZM354.52 505.39H382.17V475.33H394.17L414.61 505.39H445.87L421.87 470.53C428.021 467.972 433.259 463.623 436.904 458.048C440.55 452.473 442.433 445.93 442.31 439.27C442.585 435.085 441.977 430.89 440.527 426.955C439.076 423.02 436.815 419.435 433.89 416.43C429.531 412.457 424.387 409.44 418.792 407.575C413.196 405.71 407.272 405.037 401.4 405.6H354.51L354.52 505.39ZM382.17 453.69V429.69H400.17C408.59 429.69 414.6 433.3 414.6 441.69C414.6 448.9 409.79 453.69 400.17 453.69H382.17ZM431.46 506.59H460.3L467.51 488.59H506L513.21 506.59H543.27L501.19 405.59H474.73L431.46 506.59ZM477.14 465.71L488 438.06L498.82 465.71H477.14ZM546.87 505.38H574.52V405.6H546.86L546.87 505.38ZM581.73 506.58H609.38V451.28L651.46 505.38H675.46V405.6H647.85V458.5L607 405.6H581.73V506.58ZM724.79 506.58C750.04 506.58 765.67 494.58 765.67 474.12C765.67 454.88 751.24 447.67 728.4 442.86C715.18 439.25 711.57 438.05 711.57 433.24C711.57 429.63 713.97 427.24 721.19 427.24C731.109 427.877 740.668 431.202 748.84 436.86L763.27 417.62C751.57 408.641 737.132 403.972 722.39 404.4C698.39 404.4 683.92 418.83 683.92 436.86C683.92 457.3 699.55 463.31 721.19 468.12C734.41 471.73 738.02 472.93 738.02 477.74C738.02 482.55 733.21 484.95 726.02 484.95C714.074 485.185 702.48 480.899 693.56 472.95L677.93 490.95C684.304 496.549 691.733 500.816 699.781 503.502C707.828 506.188 716.331 507.238 724.79 506.59V506.58ZM260.74 742.22H490.36V703.75H260.74V742.22Z" fill="white"/>
</g>
<defs>
<clipPath id="clip0_2_2553">
<rect width="1024" height="1024" fill="white"/>
</clipPath>
</defs>
</svg>

<svg xmlns="http://www.w3.org/2000/svg" width="1024" height="1024" fill="none">
   <g clip-path="url(#a)">
      <path fill="#56595B" d="M512 1024c282.77 0 512-229.23 512-512S794.77 0 512 0 0 229.23 0 512s229.23 512 512 512Z"/>
      <path fill="#fff" d="m258.33 367.13 18-16.83a20.47 20.47 0 0 0 15.67 9.62c7.213 0 10.82-4.81 10.82-14.43v-63.71h27.65v63.72a33.623 33.623 0 0 1-1.64 14.928 33.618 33.618 0 0 1-20.702 20.701 33.61 33.61 0 0 1-14.928 1.641 36.382 36.382 0 0 1-34.87-15.64Zm79.35 15.63h80.55v-24h-54.1v-15.67h48.09v-21.64h-48.09v-15.63H417V283h-80.52l1.2 99.76Zm115.41 0h27.65V307h30.06v-24H423v24h30.06l.03 75.76ZM260.74 505.39h51.7c22.84 0 37.27-10.82 37.27-27.65a23.41 23.41 0 0 0-19.24-24 23.511 23.511 0 0 0 15.63-22.84 23.777 23.777 0 0 0-6-16.83 44.5 44.5 0 0 0-27.65-8.42h-51.7l-.01 99.74Zm57.71-68.53c0 6-4.81 8.42-13.22 9.62h-16.84v-18h18c7.21 0 12 2.4 12 8.42l.06-.04Zm3.61 37.27c0 6-4.81 9.62-13.22 9.62h-21.65v-18h21.64c8.41-.04 13.22 2.37 13.22 8.38h.01Zm32.46 31.26h27.65v-30.06h12l20.44 30.06h31.26l-24-34.86a33.186 33.186 0 0 0 20.44-31.26 29.938 29.938 0 0 0-8.42-22.84 42.248 42.248 0 0 0-32.49-10.83h-46.89l.01 99.79Zm27.65-51.7v-24h18c8.42 0 14.43 3.61 14.43 12 0 7.21-4.81 12-14.43 12h-18Zm49.29 52.9h28.84l7.21-18H506l7.21 18h30.06l-42.08-101h-26.46l-43.27 101Zm45.68-40.88L488 438.06l10.82 27.65h-21.68Zm69.73 39.67h27.65V405.6h-27.66l.01 99.78Zm34.86 1.2h27.65v-55.3l42.08 54.1h24V405.6h-27.61v52.9L607 405.6h-25.27v100.98Zm143.06 0c25.25 0 40.88-12 40.88-32.46 0-19.24-14.43-26.45-37.27-31.26-13.22-3.61-16.83-4.81-16.83-9.62 0-3.61 2.4-6 9.62-6a54.736 54.736 0 0 1 27.65 9.62l14.43-19.24a64.09 64.09 0 0 0-40.88-13.22c-24 0-38.47 14.43-38.47 32.46 0 20.44 15.63 26.45 37.27 31.26 13.22 3.61 16.83 4.81 16.83 9.62s-4.81 7.21-12 7.21a47.389 47.389 0 0 1-32.46-12l-15.63 18a63.633 63.633 0 0 0 46.86 15.64v-.01ZM260.74 742.22h229.62v-38.47H260.74v38.47Z"/>
   </g>
   <defs>
      <clipPath id="a">
         <path fill="#fff" d="M0 0h1024v1024H0z"/>
      </clipPath>
   </defs>
</svg>
